outputs/icons/file/folder_outline_round.svg

<svg xmlns="http://www.w3.org/2000/svg" width="1200" height="1200" fill="none"><g clip-path="url(#a)"><path fill="#000" d="M1000 300H600l-70.5-70.5c-19-19-44.5-29.5-71-29.5H200c-55 0-99.5 45-99.5 100l-.5 600c0 55 45 100 100 100h800c55 0 100-45 100-100V400c0-55-45-100-100-100m-50 600H250c-27.5 0-50-22.5-50-50V450c0-27.5 22.5-50 50-50h700c27.5 0 50 22.5 50 50v400c0 27.5-22.5 50-50 50"/></g><defs><clipPath id="a"><path fill="#fff" d="M0 0h1200v1200H0z"/></clipPath></defs></svg>

<svg width="1200" height="1200" viewBox="0 0 1200 1200" fill="none" xmlns="http://www.w3.org/2000/svg"><g clip-path="url(#clip0_238_2797)"><path d="M1000 300H600L529.5 229.5C510.5 210.5 485 200 458.5 200H200C145 200 100.5 245 100.5 300L100 900C100 955 145 1000 200 1000H1000C1055 1000 1100 955 1100 900V400C1100 345 1055 300 1000 300ZM950 900H250C222.5 900 200 877.5 200 850V450C200 422.5 222.5 400 250 400H950C977.5 400 1000 422.5 1000 450V850C1000 877.5 977.5 900 950 900Z" fill="black"/></g><defs><clipPath id="clip0_238_2797"><path width="24" fill="white" d="M0 0H1200V1200H0V0z"/></clipPath></defs></svg>
